src/Resources/public/images/be-icons/tracking_c4g.svg

<?xml version="1.0" encoding="UTF-8" standalone="no"?>
<!DOCTYPE svg PUBLIC "-//W3C//DTD SVG 1.1//EN" "http://www.w3.org/Graphics/SVG/1.1/DTD/svg11.dtd">
<svg width="100%" height="100%" viewBox="0 0 192 150" version="1.1" xmlns="http://www.w3.org/2000/svg" xmlns:xlink="http://www.w3.org/1999/xlink" xml:space="preserve" xmlns:serif="http://www.serif.com/" style="fill-rule:evenodd;clip-rule:evenodd;stroke-linecap:round;stroke-linejoin:round;stroke-miterlimit:1.5;">
    <g id="Ebene_7">
        <g transform="matrix(0.973783,0,0,0.97943,4.07961,2.75886)">
            <path d="M185.4,24.939L185.4,122.578C185.4,134.512 175.655,144.2 163.653,144.2L24.932,144.2C12.93,144.2 3.185,134.512 3.185,122.578L3.185,24.939C3.185,13.005 12.93,3.317 24.932,3.317L163.653,3.317C175.655,3.317 185.4,13.005 185.4,24.939Z" style="fill:rgb(60,60,60);stroke:rgb(46,161,219);stroke-width:5.12px;"/>
        </g>
        <g transform="matrix(1.46086,0,0,1.46086,-43.5466,-17.7897)">
            <path d="M123.91,77.39C123.91,77.387 123.91,77.383 123.91,77.38C123.91,73.972 121.108,71.165 117.7,71.16L116.91,71.16L114,59.52C113.044,55.955 109.82,53.435 106.13,53.37L84.77,53.37C81.081,53.433 77.859,55.955 76.91,59.52L74,71.16L73.22,71.16C69.812,71.171 67.011,73.972 67,77.38L67,88.05C66.994,88.529 67.381,88.929 67.86,88.94L70.57,88.94L70.57,92.5C70.693,95.334 73.058,97.599 75.895,97.599C78.732,97.599 81.097,95.334 81.22,92.5L81.22,89L109.7,89L109.7,92.55C109.823,95.384 112.188,97.649 115.025,97.649C117.862,97.649 120.227,95.384 120.35,92.55L120.35,89L123,89C123.481,89.006 123.884,88.621 123.9,88.14L123.9,77.39L123.91,77.39ZM119.46,80.06C119.46,82.501 117.451,84.51 115.01,84.51C112.569,84.51 110.56,82.501 110.56,80.06C110.56,77.623 112.563,75.615 115,75.61C117.441,75.61 119.45,77.619 119.45,80.06M81.31,71.16L83.77,61.24C83.963,60.844 84.336,60.564 84.77,60.49L106.13,60.49C106.564,60.564 106.937,60.844 107.13,61.24L109.59,71.16L81.31,71.16ZM80.31,80.06C80.31,82.501 78.301,84.51 75.86,84.51C73.419,84.51 71.41,82.501 71.41,80.06C71.41,77.623 73.413,75.615 75.85,75.61C75.853,75.61 75.857,75.61 75.86,75.61C78.301,75.61 80.31,77.619 80.31,80.06C80.31,80.06 80.31,80.06 80.31,80.06" style="fill:rgb(46,161,219);fill-rule:nonzero;"/>
        </g>
        <g transform="matrix(1.46086,0,0,1.46086,-43.5466,-21.2301)">
            <path d="M105.81,51.49C105.236,40.883 96.667,32.314 86.06,31.74C85.821,31.738 85.59,31.832 85.42,32C85.225,32.171 85.115,32.42 85.12,32.68L85.12,34.79C85.12,35.284 85.517,35.694 86.01,35.71C94.518,36.207 101.379,43.081 101.86,51.59C101.886,52.083 102.296,52.475 102.79,52.48L104.9,52.48C105.426,52.448 105.841,52.007 105.84,51.48M98.3,51.48C97.771,45.003 92.577,39.809 86.1,39.28L86,39.28C85.496,39.309 85.089,39.716 85.06,40.22L85.06,42.22C85.061,42.69 85.414,43.09 85.88,43.15C90.371,43.557 93.967,47.141 94.39,51.63C94.45,52.096 94.85,52.449 95.32,52.45L97.32,52.45C97.584,52.453 97.837,52.34 98.01,52.14C98.19,51.949 98.28,51.691 98.26,51.43M90.73,49.62C90.73,48.068 89.452,46.79 87.9,46.79C86.348,46.79 85.07,48.068 85.07,49.62C85.07,51.172 86.348,52.45 87.9,52.45C89.452,52.45 90.73,51.172 90.73,49.62" style="fill:white;fill-rule:nonzero;"/>
        </g>
    </g>
</svg>

<svg xmlns="http://www.w3.org/2000/svg" viewBox="0 0 191.8 150"><title>tracking_c4g</title><g id="Ebene_7" data-name="Ebene 7"><path d="M123.91,77.39a6.22,6.22,0,0,0-6.21-6.23h-.79L114,59.52a8.3,8.3,0,0,0-7.87-6.15H84.77a8.28,8.28,0,0,0-7.86,6.15L74,71.16h-.78A6.24,6.24,0,0,0,67,77.38h0V88.05a.88.88,0,0,0,.86.89h2.71V92.5a5.33,5.33,0,0,0,10.65,0V89h28.48v3.55a5.33,5.33,0,0,0,10.65,0V89H123a.89.89,0,0,0,.9-.86V77.39Zm-4.45,2.67A4.45,4.45,0,1,1,115,75.61a4.45,4.45,0,0,1,4.45,4.45m-38.14-8.9,2.46-9.92a1.37,1.37,0,0,1,1-.75h21.36a1.37,1.37,0,0,1,1,.75l2.46,9.92Zm-1,8.9a4.45,4.45,0,1,1-4.46-4.45,4.45,4.45,0,0,1,4.46,4.45" style="fill:#103a5d"/><path d="M105.81,51.49A20.91,20.91,0,0,0,86.06,31.74h0a.9.9,0,0,0-.64.26.88.88,0,0,0-.3.68v2.11a.92.92,0,0,0,.89.92,16.86,16.86,0,0,1,15.85,15.88.94.94,0,0,0,.93.89h2.11a1,1,0,0,0,.94-1h0m-7.54,0A13.33,13.33,0,0,0,86.1,39.28H86a1,1,0,0,0-.94.94v2a.94.94,0,0,0,.82.93,9.4,9.4,0,0,1,8.51,8.48.94.94,0,0,0,.93.82h2a.9.9,0,0,0,.69-.31.93.93,0,0,0,.25-.71m-7.53-1.81a2.83,2.83,0,1,0-2.83,2.83h0a2.83,2.83,0,0,0,2.83-2.83" style="fill:#103a5d"/><path d="M51.1,105.4c.31-.08.47.06.47.36v3.87H54.5c.31,0,.44.14.44.42v1.29c0,.27-.13.41-.44.41H51.62v9.18c0,1.21.33,1.49,1.78,1.49h1.33c.3,0,.44.11.44.38v1.33c0,.24-.14.38-.41.44a8,8,0,0,1-1.54.16c-2,0-4.23,0-4.23-3.14v-9.92H47.38a.37.37,0,0,1-.41-.32V110a.36.36,0,0,1,.36-.37h1.58v-3.35a.4.4,0,0,1,.34-.44h0Z" style="fill:#003764"/><path d="M65,109.72c.27.08.41.19.41.47v1.15a.35.35,0,0,1-.32.39H62.54c-1.9,0-2.4.3-2.4,1.53v10.91a.36.36,0,0,1-.31.41H58a.36.36,0,0,1-.41-.32.14.14,0,0,1,0-.09V112.63c0-3.1,2.75-3.21,4.34-3.21A16,16,0,0,1,65,109.72Z" style="fill:#003764"/><path d="M78.32,113.7v9.62a.7.7,0,0,1-.52.78,22.85,22.85,0,0,1-6.11.6c-3.62,0-5.3-.75-5.3-4.43,0-3.3,1.73-4.24,4.86-4.24h4.43V114.2c0-1.7-1-2.47-3.57-2.47H68c-.32,0-.4-.08-.4-.41v-1.13c0-.33.11-.39.38-.44a24.22,24.22,0,0,1,4.16-.32C76.39,109.42,78.32,110.73,78.32,113.7Zm-7,4.45c-1.5,0-2.31.5-2.31,2,0,1.81.91,2.23,3.16,2.23a16,16,0,0,0,3.52-.33v-3.91Z" style="fill:#003764"/><path d="M92.11,109.63a.41.41,0,0,1,.39.44v1.21a.38.38,0,0,1-.32.41H87.94c-3.33,0-3.74,1.07-3.74,5.35s.41,5.34,3.74,5.34h4.15a.36.36,0,0,1,.41.32V124a.42.42,0,0,1-.36.47h0a34.19,34.19,0,0,1-4.17.25c-5.34,0-6.37-1.51-6.37-7.64s1-7.66,6.37-7.66A32.3,32.3,0,0,1,92.11,109.63Z" style="fill:#003764"/><path d="M97.59,103.81a.38.38,0,0,1,.41.36v10.71l4.51-5.09a.75.75,0,0,1,.58-.27h2.32c.5,0,.52.24.24.52l-4.86,5.38,6.41,8.46c.25.33.28.75-.47.75h-1.92a.78.78,0,0,1-.6-.31L98,116.18v8c0,.3-.13.44-.41.44H95.78c-.28,0-.42-.14-.42-.44v-20a.38.38,0,0,1,.33-.43.14.14,0,0,1,.09,0Z" style="fill:#003764"/><path d="M112.18,105.16a1.62,1.62,0,1,1-1.62-1.64,1.43,1.43,0,0,1,1.62,1.22A1.48,1.48,0,0,1,112.18,105.16Zm-.71,4.4a.37.37,0,0,1,.41.32v14.34a.38.38,0,0,1-.33.41h-1.89a.37.37,0,0,1-.42-.31.17.17,0,0,1,0-.1V110a.36.36,0,0,1,.32-.41.17.17,0,0,1,.1,0Z" style="fill:#003764"/><path d="M128.15,115.85v8.33a.4.4,0,0,1-.46.41h-1.76a.36.36,0,0,1-.41-.32.14.14,0,0,1,0-.09V116c0-4.2-.83-4.34-3.46-4.34h-3.77v12.48a.38.38,0,0,1-.32.41h-1.9a.38.38,0,0,1-.41-.32v-14c0-.35.15-.39.41-.44a31.25,31.25,0,0,1,5.71-.43C126.7,109.42,128.15,110,128.15,115.85Z" style="fill:#003764"/><path d="M143.49,109.88a.44.44,0,0,1,.44.42v12.91c0,5.39-1.07,7-6.36,7a31.16,31.16,0,0,1-4-.25.39.39,0,0,1-.36-.41v-1.22c0-.27.11-.41.38-.41h3.9c3.06,0,3.77-.74,3.77-3.21v-.17a21,21,0,0,1-3.63.23c-5.19,0-6.29-1.54-6.29-7.7s1.13-7.61,6.44-7.61A28.53,28.53,0,0,1,143.49,109.88Zm-5.71,1.85c-3.38,0-3.77,1.07-3.77,5.33s.41,5.36,3.82,5.36a28.67,28.67,0,0,0,3.46-.2V111.73Z" style="fill:#003764"/><path d="M24.72,5.15S5.2,5.15,5.2,24.67v101s0,19.53,19.52,19.53h141.9s19.53,0,19.53-19.53V24.67s0-19.52-19.53-19.52Z" style="fill:none;stroke:#103a5d;stroke-width:2.51389524052214px"/></g></svg>
